X:1
T: The Fourpenny Bit
C:
R:Reel
Q: 232
K:G
M:4/4
L:1/8
DG GB cA BG|GB dB cA FA|DB BG AG AB|cB AG FG AF|
DG GB cA BG|GB dB c2 Bc|((3dcB) cA BG AG|((3EFG) Ac BG G2|
|:dg ((3gfg) bg ((3gfg)|de fg ag fg|dg fg dg fg|dB cA BG G2|
dg ((3gfg) bg ((3gfg)|de fg ag ((3gfg)|dg fg dg fg|ab ag fd cA:|
DG GB cA BG|GB dB cA FA|DB BG AG AB|cB AG FG AF|
DG GB cA BG|GB dB c2 Bc|((3dcB) cA BG AG|((3EFG) Ac BG G2||
